X: 382
T: 8.e Les Petites Faveur
T: les Petites Faveurs
B: Robert Landrin "Potpourri fran\,cois des contre-danse ancienne tel quil se danse chez la Reine ..." 1760 p.38 #2 dance 12 #8
S: http://memory.loc.gov/cgi-bin/query/D?musdibib:2:./temp/~ammem_EbRS:
Z: 2014 John Chambers <jc:trillian.mit.edu>
M: 2/2
L: 1/8
K: Gm
% - - - - - - - - - - - - - - - - - - - - - - - - -
!segno!DG^FG |\
B2A2 d4 | cBAG d4 | cBAG ^F2G2 | !+!A4 DG^FG |\
B2A2 d4 | cBAG d4 | cBAG BAG^F | GABc d4 |
cBAG BAG^F | HG4 |]| "2.F."BAGF |\
B2F2 !+!E4 | D4 BAGF | E2D2 C2B,2 | A,4 B,CDE |\
F2F2 FGAB | c2c2 f4 | edcB dcBA | B4 !segno!y|]
% - - - - - - - - - - - - - - - - - - - - - - - - -

%%sep 1 1 500
%%sep 1 1 500
